synths/iBNB.svg

<svg width="480" height="480" viewBox="0 0 480 480" fill="none" xmlns="http://www.w3.org/2000/svg"><circle cx="240" cy="240" r="240" fill="url(#paint0_linear)"/><path d="M413.332 74h-44.615c-26.479 0-49.238 10.625-68.278 31.874L246.427 172h98.441l16.957-20.643c3.287-3.762 7.334-5.647 12.149-5.647h86.795a236.19 236.19 0 00-3.128-7h-83.667c-6.927 0-12.865 2.828-17.42 8.042l-.07.08L341.559 165h-80.376l44.574-54.572C323.562 90.611 344.443 81 368.717 81h51.061a240.48 240.48 0 00-6.446-7zM66.667 406h45.017c26.479 0 49.239-10.732 68.278-32.205L233.888 308h-98.686l-16.626 20.303c-3.508 3.771-7.554 5.648-12.149 5.648H19.086a238.894 238.894 0 003.114 7h84.227c6.778 0 12.614-2.87 17.274-7.88l.151-.162L138.518 315H219.1l-44.464 54.252C156.819 389.299 135.94 399 111.684 399H60.221a240.688 240.688 0 006.446 7zm394.243-72.04h-86.936c-4.603 0-8.535-1.77-11.822-5.317L345.245 308h-98.397l53.918 65.795C319.585 395.268 342.238 406 368.717 406h44.615a239.704 239.704 0 006.446-7h-51.061c-24.257 0-45.021-9.701-62.611-29.732L261.634 315h80.296l14.942 18.244.145.156c4.535 4.895 10.294 7.56 16.957 7.56h83.821a239.708 239.708 0 003.115-7zM19.23 145.71h87.197c4.816 0 8.862 1.885 12.149 5.647L135.439 172h41.187l28.614-34.922-25.278-30.873C160.923 84.741 138.269 74 112.011 74H66.667a241.47 241.47 0 00-6.446 7h51.79c24.015 0 44.794 9.694 62.624 29.748l21.557 26.328L173.312 165H138.76l-14.836-18.161-.077-.087c-4.554-5.214-10.493-8.042-17.42-8.042H22.358a238.014 238.014 0 00-3.127 7z" fill="#ED1EFF"/><path d="M160.96 236.808c5.184.768 9.12 2.56 11.808 5.376 2.688 2.752 4.032 6.432 4.032 11.04 0 3.456-.896 6.688-2.688 9.696-1.728 2.944-4.576 5.376-8.544 7.296-3.968 1.856-9.056 2.784-15.264 2.784H94.816v-68.16h55.104c8.32 0 14.592 1.504 18.816 4.512 4.288 3.008 6.432 7.168 6.432 12.48 0 3.648-1.184 6.816-3.552 9.504-2.368 2.688-5.92 4.512-10.656 5.472zm-41.568-16.8v11.424h23.04c2.56 0 4.384-.576 5.472-1.728 1.088-1.152 1.632-2.592 1.632-4.32 0-3.584-2.368-5.376-7.104-5.376h-23.04zm24 37.824c2.56 0 4.48-.64 5.76-1.92 1.344-1.28 2.016-2.848 2.016-4.704 0-1.856-.672-3.328-2.016-4.416-1.344-1.152-3.264-1.728-5.76-1.728h-24v12.768h24zm81.114-52.992l27.936 31.776c2.304 2.688 4.224 5.504 5.76 8.448h.48V204.84h22.176V273h-24l-29.184-31.776c-1.024-1.152-2.144-2.592-3.36-4.32-1.216-1.728-2.048-3.168-2.496-4.32h-.48V273h-22.272v-68.16h25.44zm149.548 31.968c5.184.768 9.12 2.56 11.808 5.376 2.688 2.752 4.032 6.432 4.032 11.04 0 3.456-.896 6.688-2.688 9.696-1.728 2.944-4.576 5.376-8.544 7.296-3.968 1.856-9.056 2.784-15.264 2.784H307.91v-68.16h55.104c8.32 0 14.592 1.504 18.816 4.512 4.288 3.008 6.432 7.168 6.432 12.48 0 3.648-1.184 6.816-3.552 9.504-2.368 2.688-5.92 4.512-10.656 5.472zm-41.568-16.8v11.424h23.04c2.56 0 4.384-.576 5.472-1.728 1.088-1.152 1.632-2.592 1.632-4.32 0-3.584-2.368-5.376-7.104-5.376h-23.04zm24 37.824c2.56 0 4.48-.64 5.76-1.92 1.344-1.28 2.016-2.848 2.016-4.704 0-1.856-.672-3.328-2.016-4.416-1.344-1.152-3.264-1.728-5.76-1.728h-24v12.768h24z" fill="#fff"/><defs><linearGradient id="paint0_linear" x1="240" y1="0" x2="240" y2="701.818" gradientUnits="userSpaceOnUse"><stop stop-color="#08021E"/><stop offset="1" stop-color="#1F0777"/></linearGradient></defs></svg>

<svg width="480" height="480" viewBox="0 0 480 480" fill="none" xmlns="http://www.w3.org/2000/svg">
<circle cx="240" cy="240" r="240" fill="url(#paint0_linear)"/>
<mask id="mask0" mask-type="alpha" maskUnits="userSpaceOnUse" x="0" y="0" width="480" height="480">
<circle cx="240" cy="240" r="240" fill="url(#paint1_linear)"/>
</mask>
<g mask="url(#mask0)">
<path fill-rule="evenodd" clip-rule="evenodd" d="M123.924 146.839L138.76 165H173.312L196.192 137.076L174.636 110.748C156.805 90.694 136.027 81 112.011 81H12V138.71H106.428C113.355 138.71 119.293 141.538 123.848 146.752L123.924 146.839ZM179.963 106.205L205.24 137.078L176.626 172H135.439L118.576 151.357C115.289 147.595 111.243 145.71 106.428 145.71H7.95094C7.07626 145.71 6.36061 145.433 5.82167 144.879C5.27389 144.334 5 143.717 5 143.056V76.6539C5 75.9927 5.27389 75.385 5.82167 74.831C6.36061 74.277 7.07626 74 7.95094 74H112.011C138.27 74 160.923 84.7408 179.963 106.205ZM123.852 332.909L123.701 333.071C119.042 338.081 113.205 340.951 106.428 340.951H12.3269V399H111.685C135.94 399 156.82 389.299 174.636 369.252L219.1 315H138.518L123.852 332.909ZM135.203 308H233.888L179.963 373.795C160.923 395.268 138.164 406 111.685 406H7.95094C7.07626 406 6.41363 405.723 5.9807 405.169C5.53894 404.615 5.3269 403.9 5.3269 403.007V336.605C5.3269 335.943 5.53894 335.336 5.9807 334.782C6.41363 334.228 7.07626 333.951 7.95094 333.951H106.428C111.022 333.951 115.068 332.074 118.576 328.303L135.203 308ZM362.153 328.643C365.439 332.19 369.371 333.96 373.974 333.96H472.451C473.325 333.96 473.979 334.237 474.421 334.791C474.854 335.345 475.075 336.069 475.075 336.944V403.346C475.075 404.007 474.854 404.624 474.421 405.169C473.979 405.723 473.325 406 472.451 406H368.717C342.238 406 319.585 395.268 300.766 373.795L246.848 308H345.245L362.153 328.643ZM341.93 315H261.635L306.106 369.268C323.696 389.299 344.46 399 368.717 399H468.075V340.96H373.974C367.312 340.96 361.552 338.295 357.018 333.4L356.872 333.244L341.93 315ZM361.826 151.357C365.112 147.595 369.159 145.71 373.974 145.71H472.451C473.325 145.71 473.979 145.433 474.421 144.879C474.854 144.334 475.075 143.717 475.075 143.056V76.6539C475.075 75.7693 474.854 75.108 474.421 74.6612C473.979 74.2234 473.325 74 472.451 74H368.717C342.238 74 319.479 84.6246 300.439 105.874L246.427 172H344.868L361.826 151.357ZM341.559 165L356.484 146.832L356.554 146.752C361.109 141.538 367.047 138.71 373.974 138.71H468.075V81H368.717C344.443 81 323.562 90.6107 305.758 110.428L261.183 165H341.559Z" fill="#ED1EFF"/>
</g>
<path d="M160.96 236.808C166.144 237.576 170.08 239.368 172.768 242.184C175.456 244.936 176.8 248.616 176.8 253.224C176.8 256.68 175.904 259.912 174.112 262.92C172.384 265.864 169.536 268.296 165.568 270.216C161.6 272.072 156.512 273 150.304 273H94.8164V204.84H149.92C158.24 204.84 164.512 206.344 168.736 209.352C173.024 212.36 175.168 216.52 175.168 221.832C175.168 225.48 173.984 228.648 171.616 231.336C169.248 234.024 165.696 235.848 160.96 236.808ZM119.392 220.008V231.432H142.432C144.992 231.432 146.816 230.856 147.904 229.704C148.992 228.552 149.536 227.112 149.536 225.384C149.536 221.8 147.168 220.008 142.432 220.008H119.392ZM143.392 257.832C145.952 257.832 147.872 257.192 149.152 255.912C150.496 254.632 151.168 253.064 151.168 251.208C151.168 249.352 150.496 247.88 149.152 246.792C147.808 245.64 145.888 245.064 143.392 245.064H119.392V257.832H143.392Z" fill="white"/>
<path d="M224.506 204.84L252.442 236.616C254.746 239.304 256.666 242.12 258.202 245.064H258.682V234.504V204.84H280.858V273H256.858L227.674 241.224C226.65 240.072 225.53 238.632 224.314 236.904C223.098 235.176 222.266 233.736 221.818 232.584H221.338V243.048V273H199.066V204.84H224.506Z" fill="white"/>
<path d="M374.054 236.808C379.238 237.576 383.174 239.368 385.862 242.184C388.55 244.936 389.894 248.616 389.894 253.224C389.894 256.68 388.998 259.912 387.206 262.92C385.478 265.864 382.63 268.296 378.662 270.216C374.694 272.072 369.606 273 363.398 273H307.91V204.84H363.014C371.334 204.84 377.606 206.344 381.83 209.352C386.118 212.36 388.262 216.52 388.262 221.832C388.262 225.48 387.078 228.648 384.71 231.336C382.342 234.024 378.79 235.848 374.054 236.808ZM332.486 220.008V231.432H355.526C358.086 231.432 359.91 230.856 360.998 229.704C362.086 228.552 362.63 227.112 362.63 225.384C362.63 221.8 360.262 220.008 355.526 220.008H332.486ZM356.486 257.832C359.046 257.832 360.966 257.192 362.246 255.912C363.59 254.632 364.262 253.064 364.262 251.208C364.262 249.352 363.59 247.88 362.246 246.792C360.902 245.64 358.982 245.064 356.486 245.064H332.486V257.832H356.486Z" fill="white"/>
<defs>
<linearGradient id="paint0_linear" x1="240" y1="0" x2="240" y2="701.818" gradientUnits="userSpaceOnUse">
<stop stop-color="#08021E"/>
<stop offset="1" stop-color="#1F0777"/>
</linearGradient>
<linearGradient id="paint1_linear" x1="240" y1="0" x2="240" y2="701.818" gradientUnits="userSpaceOnUse">
<stop stop-color="#08021E"/>
<stop offset="1" stop-color="#1F0777"/>
</linearGradient>
</defs>
</svg>
